X: 28331
T: Mug Of Brown Ale, The
R: jig
M: 6/8
K: Adorian
|:eAA fAA|g3 age|dBA G3|BAB dB/c/d|
eAA fAA|g3 age|dB/c/d gdB|BAG A2g:|
|:efg a3|aba age|dB/c/d g3|gba ged|
efg a3|aba age|dB/c/d gdB|BAG A2g:|

